libs/ui/packages/crypto-icons/src/svg/ATOM.svg

<svg width="24" height="24" viewBox="0 0 24 24" fill="none">
<path d="M12.015 4.14746C11.0437 4.14746 10.2562 7.67021 10.2562 12.015C10.2562 16.3597 11.0437 19.8825 12.015 19.8825C12.9855 19.8825 13.773 16.3597 13.773 12.015C13.773 7.67021 12.9855 4.14746 12.015 4.14746ZM12.1365 19.4377C12.0255 19.5862 11.9137 19.4752 11.9137 19.4752C11.4667 18.9562 11.2432 17.994 11.2432 17.994C10.461 15.4762 10.647 10.071 10.647 10.071C11.0145 5.78021 11.6835 4.76621 11.9107 4.54121C11.934 4.51814 11.9647 4.50404 11.9974 4.50144C12.03 4.49883 12.0626 4.50787 12.0892 4.52696C12.4192 4.76171 12.6967 5.73971 12.6967 5.73971C13.5142 8.77571 13.44 11.6257 13.44 11.6257C13.5142 14.1067 13.0305 16.8832 13.0305 16.8832C12.6577 18.9937 12.1365 19.4377 12.1365 19.4377Z" fill="#2E3148"/>
<path d="M18.8385 8.09994C18.3547 7.25694 14.9085 8.32719 11.1382 10.4894C7.368 12.6517 4.7085 15.0869 5.19075 15.9299C5.6745 16.7729 9.1215 15.7027 12.8917 13.5404C16.662 11.3782 19.3222 8.94219 18.8392 8.09994H18.8385ZM5.63625 15.8137C5.45175 15.7912 5.49375 15.6382 5.49375 15.6382C5.72025 14.9932 6.44325 14.3197 6.44325 14.3197C8.238 12.3884 13.02 9.86019 13.02 9.86019C16.9245 8.04369 18.1372 8.12019 18.4447 8.20419C18.4765 8.2129 18.5041 8.23262 18.5227 8.25983C18.5412 8.28703 18.5495 8.31995 18.546 8.35269C18.5085 8.75544 17.796 9.48294 17.796 9.48294C15.5715 11.7037 13.062 13.0589 13.062 13.0589C10.947 14.3579 8.29725 15.3187 8.29725 15.3187C6.28125 16.0447 5.63625 15.8137 5.63625 15.8137Z" fill="#2E3148"/>
<path d="M18.8213 15.9577C19.3088 15.1177 16.656 12.6705 12.8978 10.4917C9.14025 8.31374 5.69475 7.23074 5.208 8.07224C4.7205 8.91449 7.374 11.3595 11.133 13.5382C14.8928 15.7162 18.3345 16.7992 18.8213 15.9577ZM5.53125 8.39699C5.4585 8.22599 5.61075 8.18474 5.61075 8.18474C6.2835 8.05724 7.2285 8.34749 7.2285 8.34749C9.79875 8.93249 14.382 11.8035 14.382 11.8035C17.9108 14.2725 18.4523 15.3607 18.5333 15.669C18.5415 15.7007 18.5382 15.7342 18.5241 15.7637C18.5099 15.7932 18.4858 15.8168 18.456 15.8302C18.0885 15.999 17.1023 15.7477 17.1023 15.7477C14.0648 14.9332 11.6355 13.4415 11.6355 13.4415C9.453 12.264 7.2945 10.4527 7.2945 10.4527C5.65425 9.07124 5.532 8.39774 5.532 8.39774L5.5305 8.39699H5.53125Z" fill="#2E3148"/>
<path d="M11.9962 12.9217C12.5074 12.9217 12.9217 12.5074 12.9217 11.9962C12.9217 11.4851 12.5074 11.0707 11.9962 11.0707C11.4851 11.0707 11.0707 11.4851 11.0707 11.9962C11.0707 12.5074 11.4851 12.9217 11.9962 12.9217Z" fill="#2E3148"/>
<path d="M15.7913 9.19196C16.2055 9.19196 16.5413 8.85617 16.5413 8.44196C16.5413 8.02774 16.2055 7.69196 15.7913 7.69196C15.377 7.69196 15.0413 8.02774 15.0413 8.44196C15.0413 8.85617 15.377 9.19196 15.7913 9.19196Z" fill="#2E3148"/>
<path d="M6.97949 11.0804C7.39371 11.0804 7.72949 10.7447 7.72949 10.3304C7.72949 9.91623 7.39371 9.58044 6.97949 9.58044C6.56528 9.58044 6.22949 9.91623 6.22949 10.3304C6.22949 10.7447 6.56528 11.0804 6.97949 11.0804Z" fill="#2E3148"/>
<path d="M10.9042 17.892C11.3184 17.892 11.6542 17.5562 11.6542 17.142C11.6542 16.7278 11.3184 16.392 10.9042 16.392C10.49 16.392 10.1542 16.7278 10.1542 17.142C10.1542 17.5562 10.49 17.892 10.9042 17.892Z" fill="#2E3148"/>
<path d="M11.9999 4.13251C11.0287 4.13251 10.2411 7.65526 10.2411 12C10.2411 16.3448 11.0287 19.8675 11.9999 19.8675C12.9704 19.8675 13.7579 16.3448 13.7579 12C13.7579 7.65526 12.9704 4.13251 11.9999 4.13251ZM12.1214 19.4228C12.0104 19.5713 11.8987 19.4603 11.8987 19.4603C11.4517 18.9413 11.2281 17.979 11.2281 17.979C10.4459 15.4613 10.6319 10.056 10.6319 10.056C10.9994 5.76526 11.6684 4.75126 11.8956 4.52626C11.9189 4.50318 11.9496 4.48909 11.9823 4.48648C12.015 4.48387 12.0475 4.49292 12.0742 4.51201C12.4042 4.74676 12.6816 5.72476 12.6816 5.72476C13.4992 8.76076 13.4249 11.6108 13.4249 11.6108C13.4992 14.0918 13.0154 16.8683 13.0154 16.8683C12.6426 18.9788 12.1214 19.4228 12.1214 19.4228Z" fill="#2E3148"/>
<path d="M18.8234 8.08498C18.3397 7.24198 14.8934 8.31223 11.1232 10.4745C7.35292 12.6367 4.69342 15.072 5.17567 15.915C5.65942 16.758 9.10642 15.6877 12.8767 13.5255C16.6469 11.3632 19.3072 8.92723 18.8242 8.08498H18.8234ZM5.62117 15.7987C5.43667 15.7762 5.47867 15.6232 5.47867 15.6232C5.70517 14.9782 6.42817 14.3047 6.42817 14.3047C8.22292 12.3735 13.0049 9.84523 13.0049 9.84523C16.9094 8.02873 18.1222 8.10523 18.4297 8.18923C18.4614 8.19795 18.489 8.21767 18.5076 8.24487C18.5261 8.27208 18.5344 8.30499 18.5309 8.33773C18.4934 8.74048 17.7809 9.46798 17.7809 9.46798C15.5564 11.6887 13.0469 13.044 13.0469 13.044C10.9319 14.343 8.28217 15.3037 8.28217 15.3037C6.26617 16.0297 5.62117 15.7987 5.62117 15.7987Z" fill="#2E3148"/>
<path d="M18.8062 15.9428C19.2937 15.1028 16.6409 12.6555 12.8827 10.4768C9.12518 8.29878 5.67968 7.21578 5.19293 8.05728C4.70543 8.89953 7.35893 11.3445 11.1179 13.5233C14.8777 15.7013 18.3194 16.7843 18.8062 15.9428ZM5.51618 8.38203C5.44343 8.21103 5.59568 8.16978 5.59568 8.16978C6.26843 8.04228 7.21343 8.33253 7.21343 8.33253C9.78368 8.91753 14.3669 11.7885 14.3669 11.7885C17.8957 14.2575 18.4372 15.3458 18.5182 15.654C18.5264 15.6857 18.5231 15.7193 18.509 15.7488C18.4949 15.7783 18.4707 15.8018 18.4409 15.8153C18.0734 15.984 17.0872 15.7328 17.0872 15.7328C14.0497 14.9183 11.6204 13.4265 11.6204 13.4265C9.43793 12.249 7.27943 10.4378 7.27943 10.4378C5.63918 9.05628 5.51693 8.38278 5.51693 8.38278L5.51543 8.38203H5.51618Z" fill="#2E3148"/>
<path d="M11.9812 12.9068C12.4923 12.9068 12.9067 12.4924 12.9067 11.9813C12.9067 11.4701 12.4923 11.0558 11.9812 11.0558C11.47 11.0558 11.0557 11.4701 11.0557 11.9813C11.0557 12.4924 11.47 12.9068 11.9812 12.9068Z" fill="#2E3148"/>
<path d="M15.7762 9.177C16.1904 9.177 16.5262 8.84122 16.5262 8.427C16.5262 8.01279 16.1904 7.677 15.7762 7.677C15.362 7.677 15.0262 8.01279 15.0262 8.427C15.0262 8.84122 15.362 9.177 15.7762 9.177Z" fill="#2E3148"/>
<path d="M6.96442 11.0655C7.37863 11.0655 7.71442 10.7297 7.71442 10.3155C7.71442 9.90128 7.37863 9.56549 6.96442 9.56549C6.5502 9.56549 6.21442 9.90128 6.21442 10.3155C6.21442 10.7297 6.5502 11.0655 6.96442 11.0655Z" fill="#2E3148"/>
<path d="M10.8892 17.877C11.3034 17.877 11.6392 17.5412 11.6392 17.127C11.6392 16.7128 11.3034 16.377 10.8892 16.377C10.4749 16.377 10.1392 16.7128 10.1392 17.127C10.1392 17.5412 10.4749 17.877 10.8892 17.877Z" fill="#2E3148"/>
</svg>

<svg width="24" height="24" viewBox="0 0 24 24" fill="none"><path fill="#2e3148" d="M12.015 4.147c-.971 0-1.759 3.523-1.759 7.868s.788 7.868 1.759 7.868 1.758-3.523 1.758-7.868-.787-7.868-1.758-7.868m.121 15.29c-.11.15-.222.038-.222.038-.447-.519-.67-1.481-.67-1.481-.783-2.518-.597-7.923-.597-7.923.367-4.29 1.037-5.305 1.264-5.53a.14.14 0 0 1 .178-.014c.33.235.608 1.213.608 1.213.817 3.036.743 5.886.743 5.886.074 2.48-.41 5.257-.41 5.257-.372 2.11-.893 2.555-.893 2.555"/><path fill="#2e3148" d="M18.839 8.1c-.484-.843-3.93.227-7.7 2.39-3.771 2.162-6.43 4.597-5.948 5.44.484.843 3.93-.227 7.7-2.39 3.771-2.162 6.431-4.598 5.948-5.44M5.636 15.814c-.184-.023-.142-.176-.142-.176.226-.645.95-1.318.95-1.318 1.794-1.932 6.576-4.46 6.576-4.46 3.904-1.816 5.117-1.74 5.425-1.656a.14.14 0 0 1 .101.149c-.037.402-.75 1.13-.75 1.13-2.224 2.22-4.734 3.576-4.734 3.576-2.115 1.299-4.765 2.26-4.765 2.26-2.016.726-2.66.495-2.66.495"/><path fill="#2e3148" d="M18.821 15.958c.488-.84-2.165-3.287-5.923-5.466-3.758-2.178-7.203-3.261-7.69-2.42s2.166 3.288 5.925 5.466 7.201 3.261 7.688 2.42M5.531 8.397c-.072-.171.08-.212.08-.212.673-.128 1.618.162 1.618.162 2.57.585 7.153 3.457 7.153 3.457 3.529 2.469 4.07 3.557 4.151 3.865a.14.14 0 0 1-.077.161c-.367.169-1.354-.082-1.354-.082-3.037-.815-5.466-2.306-5.466-2.306-2.183-1.178-4.341-2.99-4.341-2.99-1.64-1.38-1.763-2.054-1.763-2.054z"/><path fill="#2e3148" d="M11.996 12.922a.925.925 0 1 0 0-1.851.925.925 0 0 0 0 1.85m3.795-3.729a.75.75 0 1 0 0-1.5.75.75 0 0 0 0 1.5M6.98 11.08a.75.75 0 1 0 0-1.5.75.75 0 0 0 0 1.5m3.924 6.812a.75.75 0 1 0 0-1.5.75.75 0 0 0 0 1.5"/><path fill="#2e3148" d="M12 4.133c-.971 0-1.759 3.522-1.759 7.867s.788 7.868 1.759 7.868 1.758-3.523 1.758-7.868S12.97 4.133 12 4.133m.121 15.29c-.11.148-.222.037-.222.037-.447-.519-.67-1.481-.67-1.481-.783-2.518-.597-7.923-.597-7.923.367-4.29 1.036-5.305 1.264-5.53a.14.14 0 0 1 .178-.014c.33.235.608 1.213.608 1.213.817 3.036.743 5.886.743 5.886.074 2.48-.41 5.257-.41 5.257-.372 2.11-.894 2.555-.894 2.555"/><path fill="#2e3148" d="M18.823 8.085c-.483-.843-3.93.227-7.7 2.39-3.77 2.162-6.43 4.597-5.947 5.44s3.93-.227 7.7-2.39c3.77-2.162 6.431-4.598 5.948-5.44M5.621 15.799c-.184-.023-.142-.176-.142-.176.226-.645.95-1.318.95-1.318 1.794-1.931 6.576-4.46 6.576-4.46 3.904-1.816 5.117-1.74 5.425-1.656a.14.14 0 0 1 .1.149c-.037.402-.75 1.13-.75 1.13-2.224 2.22-4.733 3.576-4.733 3.576-2.115 1.299-4.765 2.26-4.765 2.26-2.016.726-2.66.495-2.66.495"/><path fill="#2e3148" d="M18.806 15.943c.488-.84-2.165-3.287-5.923-5.466-3.758-2.178-7.203-3.261-7.69-2.42-.488.843 2.166 3.287 5.925 5.466 3.76 2.178 7.201 3.261 7.688 2.42M5.516 8.382c-.073-.171.08-.212.08-.212.672-.128 1.617.163 1.617.163 2.57.585 7.154 3.456 7.154 3.456 3.529 2.469 4.07 3.557 4.151 3.865a.14.14 0 0 1-.077.161c-.368.169-1.354-.082-1.354-.082-3.037-.815-5.467-2.306-5.467-2.306-2.182-1.178-4.34-2.99-4.34-2.99-1.64-1.38-1.763-2.054-1.763-2.054z"/><path fill="#2e3148" d="M11.981 12.907a.926.926 0 1 0 0-1.851.926.926 0 0 0 0 1.85m3.795-3.729a.75.75 0 1 0 0-1.5.75.75 0 0 0 0 1.5m-8.812 1.889a.75.75 0 1 0 0-1.5.75.75 0 0 0 0 1.5m3.926 6.811a.75.75 0 1 0 0-1.5.75.75 0 0 0 0 1.5"/></svg>
